src/assets/svgs/refactor/story-value-community.svg

<svg fill="none" height="33" viewBox="0 0 37 33" width="37" xmlns="http://www.w3.org/2000/svg" xmlns:xlink="http://www.w3.org/1999/xlink"><clipPath id="a"><path d="m0 0h37v33h-37z"/></clipPath><g clip-path="url(#a)"><path d="m16.6987 33c-1.0519 0-2.0434-.414-2.7326-1.1325-.6288-.6332-1.0157-1.4612-1.1004-2.338-.8826-.0852-1.7049-.4749-2.3336-1.1203-.61669-.621-1.00362-1.4125-1.10035-2.2771-.83431-.0852-1.60817-.4627-2.21274-1.0594-1.1366-1.1447-1.39053-2.9225-.66504-4.3472l-3.6879-3.507c-3.83301-3.8602-3.83301-10.09488-.02419-13.9185 1.85-1.8631 4.29249-2.885978 6.90425-2.885978 2.61177 0 5.05427 1.010698 6.89217 2.861628l1.3663 1.33948 1.5598-1.57085c2.1523-1.99705 4.6432-3.04428 7.1945-3.04428 3.966 0 7.7385 2.5572 9.3951 6.35646 1.6444 3.76274.8706 7.81774-2.1281 11.12984l.1088.1096c1.5235 1.5344 1.5235 4.0185 0 5.5528-.665.6698-1.4994 1.0716-2.3941 1.1568-.0847.9011-.4716 1.7414-1.1245 2.3989-.6893.6941-1.5477 1.096-2.4667 1.169-.0967.889-.4958 1.7048-1.1124 2.3259-.7618.7671-1.7412 1.169-2.7811 1.169-1.0398 0-2.0192-.4019-2.7568-1.1447l-.2177-.2192-1.8621 1.8753c-.6892.7185-1.6807 1.1325-2.7326 1.1325zm.2661-9.0354c.3748 0 .7375.1461 1.0036.4262.266.28.4232.6332.4232 1.0107s-.1451.7428-.4232 1.0107l-1.971 1.9848c-.1934.1949-.3022.4506-.3022.7185s.1088.5236.2901.7184c.1814.1949.4353.2923.7134.2923.2782 0 .5321-.1096.7014-.2923l2.0313-2.0457c-.665-1.4491-.3385-3.3.7981-4.4081.3023-.3045.6408-.5602 1.0036-.7428-.8223-1.4856-.5683-3.507.6529-4.6882.7497-.755 1.7291-1.169 2.769-1.169.3869 0 .7617.0609 1.1245.1705.1934-.475.4836-.9255.8464-1.2908.7134-.755 1.717-1.169 2.781-1.169.9794 0 1.8984.3531 2.5876.9741 2.7931-2.8859 2.769-7.52542-.0726-10.37486-1.3905-1.40037-3.2284-2.16753-5.1872-2.16753s-3.8088.76716-5.1873 2.16753l-1.5356 1.54649 3.1438 3.06864c.786.74283 1.2575 1.82653 1.2575 2.99553 0 1.1569-.4353 2.2528-1.2212 3.0078-.7376.7671-1.8137 1.2177-2.9503 1.2177s-2.2128-.4506-2.9625-1.2299l-.9794-.9863-7.09769 7.1479c-.15719.1583-.24183.3775-.24183.5967s.08464.4262.24183.5723c.16928.1705.37484.2558.59249.2558.2176 0 .4353-.0853.5925-.2436l2.1039-2.1188c.266-.2679.6288-.4262 1.0036-.4262s.7376.1461 1.0036.4262.4232.6332.4232 1.0107-.1451.7428-.4232 1.0107l-1.9951 2.0092c-.3869.4019-.3869 1.0351 0 1.4369.1814.1949.4353.2923.7134.2923s.532-.1096.7013-.2923l1.983-1.997c.266-.2679.6288-.4262 1.0036-.4262zm6.0578 1.1324c-.2781 0-.5441.1096-.7376.3045-.2176.2192-.3265.4871-.3265.7671 0 .2801.1089.5602.3023.7428l1.2696 1.2786c.1935.1949.4595.3045.7376.3045s.5441-.1096.7376-.3045c.2297-.2313.3386-.487.3386-.7671s-.1089-.548-.3023-.755l-1.2575-1.2664c-.1935-.1949-.4595-.3045-.7376-.3045zm1.6565-5.4431c-.2781 0-.5441.1096-.7375.3044-.2177.2192-.3265.4871-.3265.7672 0 .28.1088.5601.3023.7428l3.1921 3.2147c.1935.1949.4595.3045.7376.3045s.532-.1096.7255-.3045c.2297-.2192.3386-.4871.3386-.7793 0-.2923-.1089-.5602-.3023-.7428l-3.1801-3.2148c-.1935-.1948-.4595-.3044-.7376-.3044zm4.7641-2.3015c-.2902 0-.5562.1096-.7376.3044-.2297.2192-.3386.4871-.3386.7794 0 .2922.1089.5601.3023.7428l1.9589 1.9727c.1934.1948.4594.3044.7375.3044s.5442-.1096.7376-.3044c.2298-.2314.3386-.4871.3386-.7672s-.1088-.548-.3023-.755l-1.9467-1.9605c-.1935-.1948-.4595-.3044-.7376-.3044zm-19.69707-14.06458c-1.85 0-3.57908.71845-4.88497 2.03358-1.30588 1.30295-2.01928 3.04428-2.01928 4.9074 0 1.8509.7134 3.6044 2.01928 4.9074l3.60327 3.4339 6.05787-6.1007c.4595-.4871 1.1245-.755 1.8258-.755s1.3663.2801 1.8258.7671l1.1729 1.1812c.3265.3288.6892.3897.931.3897.3628 0 .7134-.1461.9674-.4018.1692-.1705.3748-.475.3748-.9377 0-.3531-.1451-.6941-.4111-.9498l-6.5536-6.41734c-1.3059-1.32731-3.0471-2.04576-4.89708-2.04576z" fill="#fff8f3"/></g></svg>

<svg width="37" height="33" viewBox="0 0 37 33" fill="none" xmlns="http://www.w3.org/2000/svg">
<g id="Layer_2" clip-path="url(#clip0_4457_4783)">
<path id="Vector" d="M16.6987 33C15.6468 33 14.6553 32.586 13.9661 31.8675C13.3373 31.2343 12.9504 30.4063 12.8657 29.5295C11.9831 29.4443 11.1608 29.0546 10.5321 28.4092C9.91541 27.7882 9.52848 26.9967 9.43175 26.1321C8.59744 26.0469 7.82358 25.6694 7.21901 25.0727C6.08241 23.928 5.82848 22.1502 6.55397 20.7255L2.86607 17.2185C-0.96694 13.3583 -0.96694 7.12362 2.84188 3.3C4.69188 1.4369 7.13437 0.414022 9.74613 0.414022C12.3579 0.414022 14.8004 1.42472 16.6383 3.27565L18.0046 4.61513L19.5644 3.04428C21.7167 1.04723 24.2076 0 26.7589 0C30.7249 0 34.4974 2.5572 36.154 6.35646C37.7984 10.1192 37.0246 14.1742 34.0259 17.4863L34.1347 17.5959C35.6582 19.1303 35.6582 21.6144 34.1347 23.1487C33.4697 23.8185 32.6353 24.2203 31.7406 24.3055C31.6559 25.2066 31.269 26.0469 30.6161 26.7044C29.9268 27.3985 29.0684 27.8004 28.1494 27.8734C28.0527 28.7624 27.6536 29.5782 27.037 30.1993C26.2752 30.9664 25.2958 31.3683 24.2559 31.3683C23.2161 31.3683 22.2367 30.9664 21.4991 30.2236L21.2814 30.0044L19.4193 31.8797C18.7301 32.5982 17.7386 33.0122 16.6867 33.0122L16.6987 33ZM16.9648 23.9646C17.3396 23.9646 17.7023 24.1107 17.9684 24.3908C18.2344 24.6708 18.3916 25.024 18.3916 25.4015C18.3916 25.779 18.2465 26.1443 17.9684 26.4122L15.9974 28.397C15.804 28.5919 15.6952 28.8476 15.6952 29.1155C15.6952 29.3834 15.804 29.6391 15.9853 29.8339C16.1667 30.0288 16.4206 30.1262 16.6987 30.1262C16.9769 30.1262 17.2308 30.0166 17.4001 29.8339L19.4314 27.7882C18.7664 26.3391 19.0929 24.4882 20.2295 23.3801C20.5318 23.0756 20.8703 22.8199 21.2331 22.6373C20.4108 21.1517 20.6648 19.1303 21.886 17.9491C22.6357 17.1941 23.6151 16.7801 24.655 16.7801C25.0419 16.7801 25.4167 16.841 25.7795 16.9506C25.9729 16.4756 26.2631 16.0251 26.6259 15.6598C27.3393 14.9048 28.3429 14.4908 29.4069 14.4908C30.3863 14.4908 31.3053 14.8439 31.9945 15.4649C34.7876 12.579 34.7635 7.93948 31.9219 5.09004C30.5314 3.68967 28.6935 2.92251 26.7347 2.92251C24.7759 2.92251 22.9259 3.68967 21.5474 5.09004L20.0118 6.63653L23.1556 9.70517C23.9416 10.448 24.4131 11.5317 24.4131 12.7007C24.4131 13.8576 23.9778 14.9535 23.1919 15.7085C22.4543 16.4756 21.3782 16.9262 20.2416 16.9262C19.105 16.9262 18.0288 16.4756 17.2791 15.6963L16.2997 14.71L9.20201 21.8579C9.04482 22.0162 8.96018 22.2354 8.96018 22.4546C8.96018 22.6738 9.04482 22.8808 9.20201 23.0269C9.37129 23.1974 9.57685 23.2827 9.7945 23.2827C10.0121 23.2827 10.2298 23.1974 10.387 23.0391L12.4909 20.9203C12.7569 20.6524 13.1197 20.4941 13.4945 20.4941C13.8693 20.4941 14.2321 20.6402 14.4981 20.9203C14.7641 21.2004 14.9213 21.5535 14.9213 21.931C14.9213 22.3085 14.7762 22.6738 14.4981 22.9417L12.503 24.9509C12.1161 25.3528 12.1161 25.986 12.503 26.3878C12.6844 26.5827 12.9383 26.6801 13.2164 26.6801C13.4945 26.6801 13.7484 26.5705 13.9177 26.3878L15.9007 24.3908C16.1667 24.1229 16.5295 23.9646 16.9043 23.9646H16.9648ZM23.0226 25.097C22.7445 25.097 22.4785 25.2066 22.285 25.4015C22.0674 25.6207 21.9585 25.8886 21.9585 26.1686C21.9585 26.4487 22.0674 26.7288 22.2608 26.9114L23.5304 28.19C23.7239 28.3849 23.9899 28.4945 24.268 28.4945C24.5461 28.4945 24.8121 28.3849 25.0056 28.19C25.2353 27.9587 25.3442 27.703 25.3442 27.4229C25.3442 27.1428 25.2353 26.8749 25.0419 26.6679L23.7844 25.4015C23.5909 25.2066 23.3249 25.097 23.0468 25.097H23.0226ZM24.6791 19.6539C24.401 19.6539 24.135 19.7635 23.9416 19.9583C23.7239 20.1775 23.6151 20.4454 23.6151 20.7255C23.6151 21.0055 23.7239 21.2856 23.9174 21.4683L27.1095 24.683C27.303 24.8779 27.569 24.9875 27.8471 24.9875C28.1252 24.9875 28.3791 24.8779 28.5726 24.683C28.8023 24.4638 28.9112 24.1959 28.9112 23.9037C28.9112 23.6114 28.8023 23.3435 28.6089 23.1609L25.4288 19.9461C25.2353 19.7513 24.9693 19.6417 24.6912 19.6417L24.6791 19.6539ZM29.4432 17.3524C29.153 17.3524 28.887 17.462 28.7056 17.6568C28.4759 17.876 28.367 18.1439 28.367 18.4362C28.367 18.7284 28.4759 18.9963 28.6693 19.179L30.6282 21.1517C30.8216 21.3465 31.0876 21.4561 31.3657 21.4561C31.6438 21.4561 31.9099 21.3465 32.1033 21.1517C32.3331 20.9203 32.4419 20.6646 32.4419 20.3845C32.4419 20.1044 32.3331 19.8365 32.1396 19.6295L30.1929 17.669C29.9994 17.4742 29.7334 17.3646 29.4553 17.3646L29.4432 17.3524ZM9.74613 3.28782C7.89613 3.28782 6.16705 4.00627 4.86116 5.3214C3.55528 6.62435 2.84188 8.36568 2.84188 10.2288C2.84188 12.0797 3.55528 13.8332 4.86116 15.1362L8.46443 18.5701L14.5223 12.4694C14.9818 11.9823 15.6468 11.7144 16.3481 11.7144C17.0494 11.7144 17.7144 11.9945 18.1739 12.4815L19.3468 13.6627C19.6733 13.9915 20.036 14.0524 20.2778 14.0524C20.6406 14.0524 20.9912 13.9063 21.2452 13.6506C21.4144 13.4801 21.62 13.1756 21.62 12.7129C21.62 12.3598 21.4749 12.0188 21.2089 11.7631L14.6553 5.34576C13.3494 4.01845 11.6082 3.3 9.75822 3.3L9.74613 3.28782Z" fill="#FFF8F3"/>
</g>
<defs>
<clipPath id="clip0_4457_4783">
<rect width="37" height="33" fill="white"/>
</clipPath>
</defs>
</svg>
